X:3
T:Miss Ogilvy of Isla Banks\.i
R:jig
C:Charles Duff
O:18th century Scotland
D:Howie, Dave  & Mac
Z:Paul Stewart Cranford (P.S.C.), <http://www.cranfordpub.com>
L:1/8
M:6/8
Q:300
K:A
E|:ABA ECE|ABA ABc|def edc|dBB BcB|ABA ECE|
ABA ABc|[1def efd|cAA AcB:|[2def efg|aAA Acd||
|:efe efg|agf ece|dfd cec|[1fBB B2 c|
efe efg|agf ecA|def efg|aAA Acd:|
[2fBB BcB|ABA ECE|ABA ABc|def efd|cAA A2|]
